src/assets/mi.svg

<svg height="512" viewBox="0 0 135.46667 135.46667" width="512" xmlns="http://www.w3.org/2000/svg"><path d="m62.474609 76.585938c-7.47555 0-14.595784 1.246427-21.359375 3.738281-12.103266 4.271733-22.070817 11.925579-29.902343 22.960941-7.4755505 10.67935-11.212891 22.60418-11.212891 35.77539v233.8789c0 17.08697 6.0510264 31.85913 18.154297 44.31836 12.459246 12.10327 27.233346 18.15625 44.320312 18.15625 17.442947 0 32.215089-6.05298 44.318361-18.15625 12.45925-12.45923 18.68945-27.23139 18.68945-44.31836v-42.53125c.13441-9.21122 9.6225-6.79429 14.41797 0 8.98111 15.55395 28.02226 28.91242 50.19141 28.83594 22.16915-.07636 40.58194-11.03699 50.19336-28.83594 3.63981-4.29263 13.89902-11.60675 14.95117 0v42.53125c0 17.08697 6.05102 31.85913 18.15429 44.31836 12.45923 12.10327 27.23335 18.15625 44.32032 18.15625 17.44294 0 32.21509-6.05298 44.31836-18.15625 12.45923-12.45923 18.68945-27.23139 18.68945-44.31836v-233.8789c0-13.17121-3.9146-25.09604-11.74609-35.77539-7.47557-11.035362-17.26588-18.689208-29.36914-22.960941-7.11956-2.491854-14.23982-3.738281-21.35938-3.738281-19.22286 0-35.41865 7.476649-48.58984 22.427734-7.11957 8.187538-10.85888 12.103938-11.21485 11.748048 0 0-50.76358 61.38323-52.1875 62.45117-1.42391 1.06791-6.14093 9.23242-16.16015 9.23242-10.01923 0-14.20109-8.16451-15.625-9.23242-1.42392-1.06794-52.1875-62.45117-52.1875-62.45117-1.06794-.35597-4.98446-4.27249-11.74805-11.748048-12.815226-14.951085-28.833803-22.427734-48.056641-22.427734zm395.060551 0c-14.9511-.000001-27.76596 5.340179-38.44532 16.019531-10.32338 10.323381-15.48437 22.961011-15.48437 37.912111s5.16099 27.76596 15.48437 38.44531c10.67936 10.32338 23.49422 15.48633 38.44532 15.48633 14.95109 0 27.76596-5.16295 38.44531-15.48633 10.67935-10.67935 16.01953-23.49421 16.01953-38.44531s-5.34018-27.58873-16.01953-37.912111c-10.67935-10.679352-23.49422-16.019531-38.44531-16.019531zm.5332 118.541012c-14.9511 0-27.76596 5.34018-38.44531 16.01953-10.67936 10.67936-16.01758 23.49422-16.01758 38.44532v131.89062c0 14.9511 5.33822 27.76596 16.01758 38.44531 10.67935 10.32339 23.49421 15.48633 38.44531 15.48633s27.58873-5.16294 37.91211-15.48633c10.67935-10.67935 16.01953-23.49421 16.01953-38.44531v-131.89062c0-14.9511-5.34018-27.76596-16.01953-38.44532-10.32338-10.67935-22.96101-16.01953-37.91211-16.01953z" fill="#2fa2bb" transform="matrix(.26458333698 0 0 .26458333698 .00000068532 -.00000277419)"/></svg>

<?xml version="1.0" encoding="UTF-8" standalone="no"?>
<!-- Created with Inkscape (http://www.inkscape.org/) -->

<svg
   xmlns:dc="http://purl.org/dc/elements/1.1/"
   xmlns:cc="http://creativecommons.org/ns#"
   xmlns:rdf="http://www.w3.org/1999/02/22-rdf-syntax-ns#"
   xmlns:svg="http://www.w3.org/2000/svg"
   xmlns="http://www.w3.org/2000/svg"
   xmlns:sodipodi="http://sodipodi.sourceforge.net/DTD/sodipodi-0.dtd"
   xmlns:inkscape="http://www.inkscape.org/namespaces/inkscape"
   width="512"
   height="512"
   viewBox="0 0 135.46667 135.46667"
   version="1.1"
   id="svg8"
   inkscape:version="0.92.1 r15371"
   sodipodi:docname="mi.svg"
   inkscape:export-filename="C:\Users\syuilo\projects\misskey\assets\favicon\32.png"
   inkscape:export-xdpi="6"
   inkscape:export-ydpi="6">
  <defs
     id="defs2">
    <inkscape:path-effect
       effect="simplify"
       id="path-effect5115"
       is_visible="true"
       steps="1"
       threshold="0.000408163"
       smooth_angles="360"
       helper_size="0"
       simplify_individual_paths="false"
       simplify_just_coalesce="false"
       simplifyindividualpaths="false"
       simplifyJustCoalesce="false" />
    <inkscape:path-effect
       effect="simplify"
       id="path-effect5111"
       is_visible="true"
       steps="1"
       threshold="0.000408163"
       smooth_angles="360"
       helper_size="0"
       simplify_individual_paths="false"
       simplify_just_coalesce="false"
       simplifyindividualpaths="false"
       simplifyJustCoalesce="false" />
    <inkscape:path-effect
       effect="simplify"
       id="path-effect5104"
       is_visible="true"
       steps="1"
       threshold="0.000408163"
       smooth_angles="360"
       helper_size="0"
       simplify_individual_paths="false"
       simplify_just_coalesce="false"
       simplifyindividualpaths="false"
       simplifyJustCoalesce="false" />
  </defs>
  <sodipodi:namedview
     id="base"
     pagecolor="#ffffff"
     bordercolor="#666666"
     borderopacity="1.0"
     inkscape:pageopacity="0.0"
     inkscape:pageshadow="2"
     inkscape:zoom="1.4142136"
     inkscape:cx="232.39583"
     inkscape:cy="251.50613"
     inkscape:document-units="px"
     inkscape:current-layer="g4502"
     showgrid="true"
     units="px"
     inkscape:snap-bbox="true"
     inkscape:bbox-nodes="true"
     inkscape:snap-bbox-edge-midpoints="false"
     inkscape:snap-smooth-nodes="true"
     inkscape:snap-center="true"
     inkscape:snap-page="true"
     inkscape:window-width="1920"
     inkscape:window-height="1027"
     inkscape:window-x="-8"
     inkscape:window-y="1072"
     inkscape:window-maximized="1"
     inkscape:snap-object-midpoints="true"
     inkscape:snap-midpoints="true"
     inkscape:object-paths="true"
     fit-margin-top="0"
     fit-margin-left="0"
     fit-margin-right="0"
     fit-margin-bottom="0"
     objecttolerance="1"
     guidetolerance="1"
     inkscape:snap-nodes="false"
     inkscape:snap-others="false">
    <inkscape:grid
       type="xygrid"
       id="grid4504"
       spacingx="4.2333334"
       spacingy="4.2333334"
       empcolor="#ff3fff"
       empopacity="0.25098039"
       empspacing="4" />
  </sodipodi:namedview>
  <metadata
     id="metadata5">
    <rdf:RDF>
      <cc:Work
         rdf:about="">
        <dc:format>image/svg+xml</dc:format>
        <dc:type
           rdf:resource="http://purl.org/dc/dcmitype/StillImage" />
        <dc:title />
      </cc:Work>
    </rdf:RDF>
  </metadata>
  <g
     inkscape:label="レイヤー 1"
     inkscape:groupmode="layer"
     id="layer1"
     transform="translate(-30.809093,-111.78601)">
    <g
       id="g4502"
       transform="matrix(1.096096,0,0,1.096096,-2.960633,-44.023579)">
      <g
         style="fill:#2FA2BB;fill-opacity:1"
         transform="translate(-1.3333333e-6,-1.3439941e-6)"
         id="g5125">
        <g
           transform="matrix(0.91391326,0,0,0.91391326,7.9719907,17.595761)"
           id="text4489"
           style="font-style:normal;font-variant:normal;font-weight:normal;font-stretch:normal;font-size:141.03404236px;line-height:476.69509888px;font-family:'OTADESIGN Rounded';-inkscape-font-specification:'OTADESIGN Rounded';letter-spacing:0px;word-spacing:0px;fill:#2FA2BB;fill-opacity:1;stroke:none;stroke-width:0.28950602px;stroke-linecap:butt;stroke-linejoin:miter;stroke-opacity:1"
           aria-label="Mi">
          <path
             style="font-style:normal;font-variant:normal;font-weight:normal;font-stretch:normal;font-family:'OTADESIGN Rounded';-inkscape-font-specification:'OTADESIGN Rounded';fill:#2FA2BB;fill-opacity:1;stroke-width:1.09609616px"
             d="M 62.474609 76.585938 C 54.999059 76.585938 47.878825 77.832365 41.115234 80.324219 C 29.011968 84.595952 19.044417 92.249798 11.212891 103.28516 C 3.7373405 113.96451 0 125.88934 0 139.06055 L 0 372.93945 C 0 390.02642 6.0510264 404.79858 18.154297 417.25781 C 30.613543 429.36108 45.387643 435.41406 62.474609 435.41406 C 79.917556 435.41406 94.689698 429.36108 106.79297 417.25781 C 119.25222 404.79858 125.48242 390.02642 125.48242 372.93945 L 125.48242 330.4082 C 125.61683 321.19698 135.10492 323.61391 139.90039 330.4082 C 148.8815 345.96215 167.92265 359.32062 190.0918 359.24414 C 212.26095 359.16778 230.67374 348.20715 240.28516 330.4082 C 243.92497 326.11557 254.18418 318.80145 255.23633 330.4082 L 255.23633 372.93945 C 255.23633 390.02642 261.28735 404.79858 273.39062 417.25781 C 285.84985 429.36108 300.62397 435.41406 317.71094 435.41406 C 335.15388 435.41406 349.92603 429.36108 362.0293 417.25781 C 374.48853 404.79858 380.71875 390.02642 380.71875 372.93945 L 380.71875 139.06055 C 380.71875 125.88934 376.80415 113.96451 368.97266 103.28516 C 361.49709 92.249798 351.70678 84.595952 339.60352 80.324219 C 332.48396 77.832365 325.3637 76.585938 318.24414 76.585938 C 299.02128 76.585938 282.82549 84.062587 269.6543 99.013672 C 262.53473 107.20121 258.79542 111.11761 258.43945 110.76172 C 258.43945 110.76172 207.67587 172.14495 206.25195 173.21289 C 204.82804 174.2808 200.11102 182.44531 190.0918 182.44531 C 180.07257 182.44531 175.89071 174.2808 174.4668 173.21289 C 173.04288 172.14495 122.2793 110.76172 122.2793 110.76172 C 121.21136 110.40575 117.29484 106.48923 110.53125 99.013672 C 97.716024 84.062587 81.697447 76.585938 62.474609 76.585938 z M 457.53516 76.585938 C 442.58406 76.585937 429.7692 81.926117 419.08984 92.605469 C 408.76646 102.92885 403.60547 115.56648 403.60547 130.51758 C 403.60547 145.46868 408.76646 158.28354 419.08984 168.96289 C 429.7692 179.28627 442.58406 184.44922 457.53516 184.44922 C 472.48625 184.44922 485.30112 179.28627 495.98047 168.96289 C 506.65982 158.28354 512 145.46868 512 130.51758 C 512 115.56648 506.65982 102.92885 495.98047 92.605469 C 485.30112 81.926117 472.48625 76.585938 457.53516 76.585938 z M 458.06836 195.12695 C 443.11726 195.12695 430.3024 200.46713 419.62305 211.14648 C 408.94369 221.82584 403.60547 234.6407 403.60547 249.5918 L 403.60547 381.48242 C 403.60547 396.43352 408.94369 409.24838 419.62305 419.92773 C 430.3024 430.25112 443.11726 435.41406 458.06836 435.41406 C 473.01946 435.41406 485.65709 430.25112 495.98047 419.92773 C 506.65982 409.24838 512 396.43352 512 381.48242 L 512 249.5918 C 512 234.6407 506.65982 221.82584 495.98047 211.14648 C 485.65709 200.46713 473.01946 195.12695 458.06836 195.12695 z "
             transform="matrix(0.26412464,0,0,0.26412464,24.988264,136.28626)"
             id="path5210" />
        </g>
      </g>
    </g>
  </g>
</svg>
